X:90
T:Roosmarijntje
Z:Bert Van Vreckem, 2001-08-11 <http://flanders.blackmill.net/music/>
M:2/4
L:1/8
K:G
"G"d>d dd|(dB) G2|"D"A>A AA|(AF) D2|
w:Dag mijn Roos-ma-rijn-_tje. Dag mijn Au-gus-tijn-_tje.
"G"GB GB|GB "D"d2|dd dd/d/|dd "G"G2|
w:'t~Schijnt dat jij mij gaar-ne ziet. Nee, nee, nee, dat ge-loof ik niet.
"G"d>d dd|(dB) G2|"D"A>A AA|(AF) D2|"G"GB GB|GB !fermata!"D7"d2"_ad lib."x:|
w:'t~Kan me niet meer sche-_len, 't~Kan me niet meer sche-_len. Jij blijft hier en ik ga door.

